!!!!SEGMENT: pl-sa--377-a-viii-17--001_anonim--sancta-maria-caelorum-regina.krn
!!!cenid: 17xx:1723
!!!COM: Anonim
!!!COM-rismID: pe30004985
!!!CDT:
!!!CNT:
!!!OTL: Sancta Maria Caelorum Regina
!!!PDT:
!!!AGN: Sacred
!!!SMS-siglum: PL-SA
!!!SMS-shelfmark: 377/A VIII 17
!!!SMS-shelfwork: 001 W
!!!SMS-variant:
!!!SMS-altvar:
!!!NIFC-rismSourceID: 1001077370
!!!NIFC-rismChildID: 1001077370
!!!NIFC-islandoraID: none
!!!URL-pdf-islandora:
!!!URL-scan: https://bc.bdsandomierz.pl/dlibra/publication/1681/edition/1649/content @EN{Scan in the Sandomierz Diocese Digital Library} @PL{Skany w portalu Cyfrowa Biblioteka Diecezjalna w Sandomierzu}
!!!IIIF:
!!!ONB-nifc: UWAGA: str. 3
!!!AIN: 1 soprn
!!!key: C
**kern	**text	**text	**text	**text
*I"Canto.	*	*	*	*
*I'S	*	*	*	*
*Isoprn	*	*	*	*
*ICvox	*	*	*	*
*IGsolo	*	*	*	*
*>[A,A,A,A]	*	*	*	*
*clefC1	*	*	*	*
*k[]	*	*	*	*
*C:	*	*	*	*
*M3/4	*	*	*	*
=1	=1	=1	=1	=1
*>A	*	*	*	*
4ee\	Sanc-	So-	Spes	Tu
4dd\	-ta	-li-	Suſ-	Ad-
8cc\	Ma-	-um	-pi-	-vo-
!LO:TX:t=P:problem=druga ósemka na inną zwrotkę, sama główka nuty	!	!	!	!
!LO:N:xstem	!	!	!	!
8cc\	.	Glo-	-ran-	.
=2	=2	=2	=2	=2
*2\right	*	*	*	*
2bt\	-ri-	-ri-	-ti-	-ca-
4a\	-a	-a	-u(m)	-ta
=3	=3	=3	=3	=3
!	!LO:MO:mod=Cae-	!	!	!
4.dd\	Ce-	Tro-	Vir-	Sa-
!LO:N:vis=8.	!	!	!	!
8ee\	-lo-	-nus	-go	-cri
4ff\	-rum	Sa-	Pu-	Ro-
=4	=4	=4	=4	=4
4ee\	Re-	-la-	-riſ-	-ſa-
2ddT\	-gi-	-mo-	-si-	-ri-
=5	=5	=5	=5	=5
2.cc\	-na	-nis	-ma	-j.
=6	=6	=6	=6	=6
4ee\	No-	Ma-	Nos	So-
4dd\	-bis-	-ter	ne	-la
4cc\	-que	Vi-	deſ-	pro-
=7	=7	=7	=7	=7
4.b\	mi-	-ven-	-pi-	-te-
8b\	-ſe-	-ti-	-ti-	-cti-
4a\	-ris	-u(m)	-as	-o
=8	=8	=8	=8	=8
4.g/	ſis	Ve-	Spe-	no-
8f/	Cle-	-l(us)	-ci-	-ſtri
4e/	-mens	Ge-	-o-	im-
=9	=9	=9	=9	=9
(8f/L	Do-	-de-	-fiſ-	-pe-
8e/J)	.	.	.	.
!LO:N:vis=4.	!	!	!	!
2d/	-mi-	-o-	-si-	-ri-
=10	=10	=10	=10	=10
2.c/	-ne	-nis	-me	-j
!!LO:LB:g=original
=11	=11	=11	=11	=11
4g\	O	So-	Tu	Suſ-
4a\	Ta-	-ror	So-	-ci-
4b\	-ber-	an-	-la	-pe
=12	=12	=12	=12	=12
4.a\	-na-	-ge-	cla-	nos
8g/	-cu-	-lo-	-ri-	ver-
4g/	-lum	-rum	-or	-sus
=13	=13	=13	=13	=13
4a\	San-	Vi-	Et	quos
4b\	-cte	-a	Lu-	ti-
(8cc\L	Tri-	Er-	-na	-bi
8b\J)	.	.	.	.
=14	=14	=14	=14	=14
(8dd\L	-ni-	-ran-	pul-	ca-
8cc\J)	.	.	.	.
!LO:TX:t=P:tr = tr.:problem	!	!	!	!
2bt\	-ta-	-ti-	-chri-	-ni-
=15	=15	=15	=15	=15
2.a\	-tis.	-um	-or	-mus
=16	=16	=16	=16	=16
4cc\	O-	De-	Vir-	Suſ-
4g/	-ve-	-cus	-go	-ci-
4a\	-na	et	Caſ-	-pe
=17	=17	=17	=17	=17
4.g/	e-	Co-	-tiſ-	has
8f/	-xe(m)-	-ro-	-si-	pre-
4e/	-plu(m)	-na	-ma	-ces
=18	=18	=18	=18	=18
4.g/	et	San-	poſt	et
8e/	Hu-	-cto-	hoc	quas
8a/L	-mi-	-ru(m)	e-	Of-
8g/J	.	.	.	.
=19	=19	=19	=19	=19
8f/L	-li-	Om-	-xi-	-fe-
8e/J	.	.	.	.
!LO:TX:t=P:tr = tr.:problem	!	!	!	!
2dT/	-ta-	-ni-	-li-	-ri-
=20	=20	=20	=20	=20
2.c/	-tis	-u(m)	-u(m)	-m(us)
==	==	==	==	==
*-	*-	*-	*-	*-
!!!ENC: Marcin Jachim
!!!END: 2021-01-05
!!!EED: Andrzej Borzym
!!!EEV: 2021-12-30
!!!YEC: Copyright 2022 Narodowy Instytut Fryderyka Chopina (https://polishscores.org)
!!!YEM: License CC-BY-4.0 (https://creativecommons.org/licenses/by/4.0)
